X:156
T:Sweeney's Polka
C:Tradtional
L:1/8
R:Polka
M:2/4
K:A
e>fe/ ce | Ae ce | fa/f/ ec | BA F2 |
e>fe/ ce | Ae ce | f/a/g/f/ ec | BA A2 :|
|: G/A/c a>f | ec BA | G/A/c a>f | ec B2 |
G/A/c a>f | ec BA | f/a/g/f/ ec | BA A2 :|


%%newpage
%%scale .7
%%staffsep 40

